X:32
C:Page 16
T:Lady Ann Hopes Reel. MBe.32
S:Matthew Betham MS, Towcett Cumbria, 1815
O:England;Cumbria;Towcett
Z:VMP – Hugh Taylor, 2012
M:2/4
L:1/8
Q:1/4=100
R:.Reel
K:G
“^cr.in MS”c|(B/c/d/B/) GB|EG DG|FA (A/B/A/G/)|”^Semi-qu’s in MS”FDDc|
(B/c/d/B/) GB|EG DG|(e/f/g/e/) (f/g/a/f/)|gGG:|
|:d|gbgd|gbgd|ea (a/b/a/g/)|fddd|
gbgd|gbgd|egfa|gGGd|
gbgd|gbgd|ea (a/b/a/g/)|fddg|
bgaf|gedc|BgAf|gGG:|

